X: 267
T: Benden Selâm Olsun
C: İhsan Ozanoğlu
O: Turkey
F: http://compmusic.upf.edu/node/140
N: gerdaniye--turku--turkaksagi--benden_selam--kastamonu
N: makam= gerdaniye
N: form= turku
N: usul= turkaksagi = 5/8
M: 5/8
L: 1/16
K: C _2/4B ^3/4f  
Q: 1/4=234
%%MIDI tuningsystem comma53
G4 A2B2 c2 | d2 B2c2 c2B2  | G4 A2B2 c2 | \
w:  ARANAĞME  |   |   | 
d2 B2c2 c2c2  | f2g2 a2a4 | 
w:   |   | 
g2 f2e2 d2c2  | c2B2 c2c2 B2 | B2 B2B2 A2A2  | \
w:   |   |   | 
cBA2 A2A4 | A4A2 A2A2  | 
w:   |   | 
g4 g6 | g8-g2  | e2f2 g2g4 | g2 z2.g2 .g2z2  | \
w:  Hey  hey   |   |  e fe ler_ ey   |  hey   SAZ  | 
{f}g2g2 g2g4 | g4g4f2  | e2f2 g2g2 f2 | 
w:  *  Ben den  se lâm_  |  ol sun   |  Bo lu be yi  | 
g2 z2g2 g2f2  | e2ed g2g2 f2 | g2 z2g2 g2g2  | \
w:  ne  SAZ  |  Bo lu *  be yi  |  ne   SAZ  | 
f2g2 a2a4 | g2 f2{g}e4d2  | 
w:  Çı kıp  şu  dağ  |  la *  *  ra   | 
d2d2 e2e2 d2 | e2 z2e2 e2d2  | c2d2 e2e2 d2 | \
w:  yas lan ma lı  |  dır   SAZ  |   | 
eG ABcd eg=f2  | 
w:   | 
e2=f2 f2f4 | =f2 e2e4d2  | d2d2 c2c2 B2 | \
w:  At  kiş ne me  |  sin *  den   |  gar gı  se sin  | 
c2 z2c2 c2B2  | A2B2 c2c2 B2 | 
w:  den   SAZ  |  gar gı  se sin  | 
c2 z2cB cd_2/4ef  | {f}g2g2 g2g4 | g2 f2_2/4e2 d2c2  | \
w:  den   SAZ  |  *  Dağ lar  se dâ   |  ve *  rip   | 
{B}c2c2 c2c3B | 
w:  *  ses len me li  | 
B4_3/4B4A2  | c2B2 A2A4 | A8z2  | B2c2 d2d4 | \
w:  dir   |  ses len me li  |  dir    |  At  kiş ne me  | 
d3cd6  | cBc2 d2c2 B2 | 
w:  sin *  den   |  gar *  gı  se sin  | 
c2 z2c2 B2A2  | cBc2 d2c2 B2 | c2 z2c2 B2A2  | \
w:  den  SAZ  |  gar *  gı  se sin  |  den   SAZ  | 
{f}g2g2 g2g4 | g2 f2_2/4e2 d2c2  | 
w:  *  Dağ lar  se dâ   |  ve *  rip   | 
{B}c2c2 c2c3B | B4_3/4B4A2  | c2B2 A2A4 | \
w:  *  ses len me li  |  dir   |  ses len me li  | 
A8z2  | G4 A2B2 c2 | d2 B2c2 c2B2  | 
w:  dir    |  ARANAĞME  |   | 
G4 A2B2 c2 | d2 B2c2 c2c2  | f2g2 a2a4 | \
w:   |   |   | 
g2 f2e2 d2c2  | c2B2 c2c2 B2 | 
w:   |   | 
B2 B2B2 A2A2  | cBA2 A2A4 | A4A2 A2A2  | \
w:   |   |   | 
g4 g6 | g8-g2  | e2f2 g2g4 | 
w:  Hey  hey   |   |  e fe ler_ ey   | 
g2 z2.g2 .g2z2  | {f}g2g2 g2g4 | g4g4f2  | \
w:  hey   SAZ  |  *  Ben den  se lâm_  |  ol sun   | 
e2f2 g2g2 f2 | g2 z2g2 g2f2  | 
w:  Bo lu be yi  |  ne  SAZ  | 
e2ed g2g2 f2 | g2 z2g2 g2g2  | f2g2 a2a4 | \
w:  Bo lu *  be yi  |  ne   SAZ  |  Çı kıp  şu  dağ  | 
g2 f2{g}e4d2  | d2d2 e2e2 d2 | 
w:  la *  *  ra   |  yas lan ma lı  | 
e2 z2e2 e2d2  | c2d2 e2e2 d2 | eG ABcd eg=f2  | \
w:  dır   SAZ  |   |   | 
e2=f2 f2f4 | 
w:  At  kiş ne me  | 
=f2 e2e4d2  | d2d2 c2c2 B2 | c2 z2c2 c2B2  | \
w:  sin *  den   |  gar gı  se sin  |  den   SAZ  | 
A2B2 c2c2 B2 | c2 z2cB cd_2/4ef  | 
w:  gar gı  se sin  |  den   SAZ  | 
{f}g2g2 g2g4 | g2 f2_2/4e2 d2c2  | {B}c2c2 c2c3B | \
w:  *  Dağ lar  se dâ   |  ve *  rip   |  *  ses len me li  | 
B4_3/4B4A2  | c2B2 A2A4 | 
w:  dir   |  ses len me li  | 
A8z2  | B2c2 d2d4 | d3cd6  | cBc2 d2c2 B2 | \
w:  dir    |  At  kiş ne me  |  sin *  den   |  gar *  gı  se sin  | 
c2 z2c2 B2A2  | cBc2 d2c2 B2 | 
w:  den  SAZ  |  gar *  gı  se sin  | 
c2 z2c2 B2A2  | {f}g2g2 g2g4 | g2 f2_2/4e2 d2c2  | \
w:  den   SAZ  |  *  Dağ lar  se dâ   |  ve *  rip   | 
{B}c2c2 c2c3B | B4_3/4B4A2  | 
w:  *  ses len me li  |  dir   | 
c2B2 A2A4 | A8z2  | |


